!!!OTL: Frisch auf, ihr Landsknecht alle! / A. Erste Lesart der Melodie.
!!!ARE: Europa, Mitteleuropa, Deutschland
!!!SCT: A0417A
!!!TXL:@@DE
!!!YEM: Copyright 1995, estate of Helmut Schaffrath.
**kern	**text
!! Mixed meters:  4/2; 6/2
*M6/2yy	*
*clefC4	*
*k[]	*
*D:dor	*
=1	=1
!LO:TX:a:t=dor.	!
1ryy	.
!LO:TX:a:t=P:1r in the source:problem	!
!LO:N:vis=1	!
2ryy	.
{2A	Wol
2A	auf,
2A	ir
=2	=2
1B	landsknecht
2A	.
2.G	al-
4A/	.
2B	.
=3	=3
*M4/2	*
1G	-le,
2r}	.
{2G	ſeid
=4	=4
*M6/2	*
1A	frö-
1A	-lich
2c	gu-
2B	-ter
=5	=5
1A	ding!
2r}	.
{2A	wir
2A	lo-
2A	-ben
=6	=6
1B	Gott
2A	den
2.G/	her-
4A/	.
2B/	.
=7	=7
*M4/2	*
1G	-ren,
2r}	.
{2G	dar-
=8	=8
*M6/2	*
1A	-ʒu
2A	den
2.F	ed-
4E	-len
2D	kö-
=9	=9
1C	-ning:
2r}	.
{2C	er
2F	legt
!LO:TX:b:t=..	!
2G	uns_ein
=10	=10
2.A/	gwal-
4A/	-ti-
2G	-gen
2.F	hau-
4E	-fen
2D	ins
=11	=11
1C	felt,
2r}	.
{2C	es
2F	ſol
2G	kein
=12	=12
1A	landsknecht
2B	.
2c	trau-
2A	-ren
2B	umb
=13	=13
*M4/2	*
1A	gelt,
2r}	.
{2A	er
=14	=14
2G	wil
2F	uns
2G	er-
2A/	-lich
=15	=15
*M6/2	*
1F	lo-
1D}	-nen
{1A	mit
=16	=16
!LO:TX:a:t=..	!
1c	ſtüwern
2B	und
1A	ſon-
2G	-nen-
=17	=17
*M6/2	*
1F	-kro-
1D}	-nen,
{1A	mit
=18	=18
!LO:TX:a:t=..	!
1c	ſtüwern
2B	und
1A	ſon-
2F	-nen-
=19	=19
*M4/2	*
4G	-kro-
4F	.
4E	.
4D	.
1E	.
=20	=20
0D/ll}	-nen.
==	==
!!!GTL: Landsknecht- und Reiterlieder
!!!AGN: Romanze, Ballade, Lied, Kriegslied
!! Dresdner Gsgb.
!!!ONB: ESAC (Essen Associative Code) Database: ALTDEU
!!!AMT: irregular
!!!AIN: vox
!!!EED: Helmut Schaffrath
!!!EEV: 1.0
!!!RDF**kern: l = terminal long
!!!AMD: Dorian
!!!URL-scan: https://rosdok.uni-rostock.de/mcrviewer/recordIdentifier/rosdok_ppn738218359/iview2/phys_0593.iview2?x=-495.6391625615763&y=431.5876847207546&scale=0.4629418472063854&rotation=0&layout=singlePageLayout&logicalDiv=log_0015
!!!ENC: Anna Maria Matuszewska
!!!EEV: 2024/15/03
*-	*-
